X:1
T:James Gibb editions
T:With my love my life was nestled - Morley
%%score [ 1 2 ]
L:1/8
Q:1/4=100
M:4/4
K:C
V:1 treble-8 nm="Tenor" snm="T"
V:2 bass nm="Lute"
V:1
"^With my love my life was nestled""^Thomas Morley\n(1557-1602)" B2 d2 c2 B2 | d2 A2 G2 G2 | %2
w: ~With my love my|life was nest- led,|
w: ~Where the truth once|was and is not,|
w: ~O true love, since|thou hast left me,|
 d2 g2 ^f2 d2 | e3 d d4 |[M:4/4][K:treble-8] B2 d2 c2 B2 | d2 A2 G2 G2 | d2 g2 ^f2 d2 | e3 d d4 | %8
w: In the sum of|hap- pi- ness;|From my love my|life was wrest- ed|To a world of|hea- vi- ness,|
w: Sha- dows are but|va- ni- ties,|Show- ing want that|help they can- not,|Signs not slaves of|mi- ser- ies|
w: Mor- tal life is|te- di- ous;|Death it is to|live with- out thee,|Death of all most|o- di- ous,|
 c2 e2 g2 G2 | B2 d2 A4 | c2 e2 B2 d2 | A3 G G4 |[M:4/4][K:treble-8] c2 e2 g2 G2 | B2 d2 A4 | %14
w: O let love my|life re- move,|Sith I live not|where I love,|O let love my|life re- move,|
w: Paint- ed meat no|hun- ger feeds,|Dy- ing life each|death ex- ceeds,|Paint- ed meat no|hun- ger feeds,|
w: Turn a- gain, and|take me with~thee,|Let me die, or|live thou~in me,|Turn a- gain, and|take me~with thee,|
 c2 e2 B2 d2 | A3 G !fermata!G4 |] %16
w: Sith I live not|where I love.|
w: Dy- ing life each|death ex- ceeds.|
w: let me die, or|live thou~in me.|
V:2
 G,4 C,2 G,2 | D,4 G,,4 | G,4 D,4 | A,,4 D,4 |[M:4/4] G,4 C,2 G,2 | D,4 G,,4 | G,4 D,E,^F,D, | %7
 A,2 A,,2 D,4 | A,,B,,C,D, E,F, G,2 | G,, A,, B,, C, D,4 | A,,B,,C,D, E,2 B,,2 | D,4 G,,4 | %12
[M:4/4] A,,B,,C,D, E, F, G,2 | G,,A,,B,,C, D,4 | A,,B,,C,D, E,2 B,,2 | D,4 !fermata!G,,4 |] %16

